X: 21924
T: Kitchenpiper, The
R: hornpipe
M: 4/4
K: Dmajor
AddA d2Ad|defd edBA|GBdg fedf|eAcB A2ef|
AddA d2Ad|defd edBA|gfeg fedf|1 eAce d2dB:|2 eAce defg||
aAAf AAdA|AfAA aAfA|GBdg fedf|eAcB A2fg|
aAAf AAdA|AfAA aAfA|gfeg fedf|eAce defg|
aAAf AAdA|AfAA aAfA|GBdg fedf|eAcB A2ef|
AddA d2Ad|defd edBA|gfeg fedf|eAce d2dB||

